X: 1072
T: ROBERT LE DIABLE QUICK-STEP
B: Oliver Ditson "The Boston Collection of Instrumental Music" 1910 p.107 #2
F: http://conquest.imslp.info/files/imglnks/usimg/8/8f/IMSLP175643-PMLP309456-bostoncollection00bost_bw.pdf
%: 2012 John Chambers <jc:trillian.mit.edu>
M: 6/8
L: 1/8
K: D
A |\
d2d d2d | dcB AGF | E3 A3 | D3 Dz f |\
e2c B2e | ca^g fed | cfe dcB | A3- A2 :|
|: A |\
D2F AAA | A2f d3 | c2c dcd | e3- e2A |\
g3 gfe | f3- fed | e2d cBc | d3- dAf |
d3 zAf | d3 efg | aba efe | d3 zAf |\
d3 zAf | d3 efg | aba efe | d3- d2 H:|
|: [K:G] B/c/ |\
d3- def | g3 gc'b | a2g fef | (g3 d)Bc |\
d3- def | g3 gc'b | a2g fef | g3- "_da Capo"g3 :|

%%sep 1 1 500
%%sep 1 1 500
